src/16/actions/im-twitter.svg

<svg xmlns="http://www.w3.org/2000/svg" viewBox="0 0 16 16">
  <defs id="defs3051">
    <style type="text/css" id="current-color-scheme">
      .ColorScheme-Text {
        color:#5d656b;
      }
      </style>
  </defs>
 <path style="fill:currentColor;fill-opacity:1;stroke:none" 
     d="M 10.308594 3 C 8.9490091 3 7.8457031 4.1311522 7.8457031 5.5253906 C 7.8457031 5.7232214 7.8682317 5.9148632 7.9101562 6.0996094 C 5.8641493 5.9943555 4.0501138 4.9902214 2.8359375 3.4628906 C 2.6239824 3.835706 2.5019531 4.2678303 2.5019531 4.7304688 C 2.5019531 5.6063688 2.9370487 6.3793236 3.5976562 6.8320312 C 3.1940858 6.8191851 2.8143306 6.706632 2.4824219 6.5175781 C 2.4821969 6.5283474 2.4824219 6.5380589 2.4824219 6.5488281 C 2.4824219 7.7720127 3.3308664 8.7914298 4.4570312 9.0234375 C 4.2504986 9.0812067 4.0331412 9.1132812 3.8085938 9.1132812 C 3.649978 9.1132812 3.4960389 9.095637 3.3457031 9.0664062 C 3.6590046 10.069345 4.5672284 10.800028 5.6445312 10.820312 C 4.8019757 11.497497 3.7413251 11.900391 2.5878906 11.900391 C 2.3891654 11.900391 2.1925603 11.888542 2 11.865234 C 3.0894752 12.581534 4.3831631 13 5.7734375 13 C 10.301677 13 12.777344 9.1526216 12.777344 5.8164062 C 12.777344 5.7069832 12.775234 5.5985113 12.771484 5.4902344 C 13.252536 5.1342805 13.669966 4.6898938 14 4.1835938 C 13.558562 4.384363 13.083857 4.5209851 12.585938 4.5820312 C 13.094139 4.2695928 13.484146 3.7750853 13.667969 3.1855469 C 13.192264 3.4748853 12.66626 3.6837135 12.105469 3.796875 C 11.656456 3.3062519 11.016668 3 10.308594 3 z "
     class="ColorScheme-Text"
     />
</svg>

<svg xmlns="http://www.w3.org/2000/svg" viewBox="0 0 16 16"><path d="M10.309 3c-1.36 0-2.463 1.131-2.463 2.525 0 .198.022.39.064.575-2.046-.106-3.86-1.11-5.074-2.637a2.556 2.556 0 0 0-.334 1.267c0 .876.435 1.65 1.096 2.102a2.402 2.402 0 0 1-1.116-.314v.03c0 1.224.849 2.243 1.975 2.475a2.404 2.404 0 0 1-1.111.043c.313 1.003 1.221 1.734 2.299 1.754A4.859 4.859 0 0 1 2 11.865 6.842 6.842 0 0 0 5.773 13c4.529 0 7.004-3.847 7.004-7.184 0-.109-.002-.217-.006-.326.482-.356.899-.8 1.229-1.306a4.83 4.83 0 0 1-1.414.398 2.521 2.521 0 0 0 1.082-1.396 4.847 4.847 0 0 1-1.563.61A2.43 2.43 0 0 0 10.31 3z" fill="currentColor" color="#5d656b"/></svg>
